outputs/icons/maps/ship_sharp.svg

<svg xmlns="http://www.w3.org/2000/svg" width="1200" height="1200" fill="none"><g fill="#000" clip-path="url(#a)"><path d="M475.006 100h249.999v62.5H475.006zM600.12 969.97c63.145 0 132.035-23.845 187.5-62.5 94.025 93.77 312.385 62.5 312.385 62.5v125s-218.36 31.25-312.385-62.5c-55.43 38.635-124.335 62.5-187.5 62.5-63.16 0-132.048-23.845-187.498-62.5-93.438 93.75-312.5 62.5-312.5 62.5v-125s219.004 31.25 312.5-62.5c55.43 38.635 124.358 62.5 187.498 62.5M412.506 782.46c55.449 38.655 124.334 62.5 187.499 62.5s132.07-23.865 187.5-62.5c19.26 19.22 43.73 33.205 70.49 43.225L975.005 537.5l-375-125-374.999 125L341.94 825.8c26.855-10.06 51.387-24.04 70.566-43.34"/><path d="M850.005 288.599v141.367l-250-83.34-249.999 83.34V288.599a62.5 62.5 0 0 1 62.5-62.501h374.999a62.503 62.503 0 0 1 62.5 62.501"/></g><defs><clipPath id="a"><path fill="#fff" d="M0 0h1200v1200H0z"/></clipPath></defs></svg>

<svg width="1200" height="1200" viewBox="0 0 1200 1200" fill="none" xmlns="http://www.w3.org/2000/svg"><g clip-path="url(#clip0_788_1764)"><path d="M475.006 100H725.005V162.5H475.006V100Z" fill="black"/><path d="M600.12 969.97C663.265 969.97 732.155 946.125 787.62 907.47C881.645 1001.24 1100.005 969.97 1100.005 969.97V1094.97C1100.005 1094.97 881.645 1126.22 787.62 1032.47C732.19 1071.105 663.285 1094.97 600.12 1094.97C536.96 1094.97 468.072 1071.125 412.622 1032.47C319.184 1126.22 100.122 1094.97 100.122 1094.97V969.97C100.122 969.97 319.126 1001.22 412.622 907.47C468.052 946.105 536.98 969.97 600.12 969.97Z" fill="black"/><path d="M412.506 782.46C467.955 821.115 536.84 844.96 600.005 844.96C663.17 844.96 732.075 821.095 787.505 782.46C806.765 801.68 831.235 815.665 857.995 825.685L975.005 537.5L600.005 412.5L225.006 537.5L341.94 825.8C368.795 815.74 393.327 801.76 412.506 782.46Z" fill="black"/><path d="M850.005 288.599V429.966L600.005 346.626L350.006 429.966V288.599C350.006 272.023 356.591 256.125 368.312 244.405C380.033 232.684 395.93 226.098 412.506 226.098H787.505C804.08 226.098 819.98 232.684 831.7 244.405C843.42 256.125 850.005 272.023 850.005 288.599Z" fill="black"/></g><defs><clipPath id="clip0_788_1764"><path width="24" fill="white" d="M0 0H1200V1200H0V0z"/></clipPath></defs></svg>
